svgs/sharp-regular/square-c.svg

<svg xmlns="http://www.w3.org/2000/svg" viewBox="0 0 448 512"><!--! Font Awesome Pro 6.6.0 by @fontawesome - https://fontawesome.com License - https://fontawesome.com/license (Commercial License) Copyright 2024 Fonticons, Inc. --><path d="M48 80l0 352 352 0 0-352L48 80zM0 32l48 0 352 0 48 0 0 48 0 352 0 48-48 0L48 480 0 480l0-48L0 80 0 32zM144 256c0 44.2 35.8 80 80 80c28.7 0 53.8-15.1 68-37.8l40.8 25.4C310.2 359.8 269.9 384 224 384c-70.7 0-128-57.3-128-128s57.3-128 128-128c45.9 0 86.2 24.2 108.7 60.5L292 213.8c-14.2-22.8-39.3-37.8-68-37.8c-44.2 0-80 35.8-80 80z"/></svg>

<svg xmlns="http://www.w3.org/2000/svg" viewBox="0 0 448 512"><!--! Font Awesome Pro 6.4.0 by @fontawesome - https://fontawesome.com License - https://fontawesome.com/license (Commercial License) Copyright 2023 Fonticons, Inc. --><path d="M48 80V432H400V80H48zM0 32H48 400h48V80 432v48H400 48 0V432 80 32zM144 256c0 44.2 35.8 80 80 80c28.7 0 53.8-15.1 68-37.8l40.8 25.4C310.2 359.8 269.9 384 224 384c-70.7 0-128-57.3-128-128s57.3-128 128-128c45.9 0 86.2 24.2 108.7 60.5L292 213.8c-14.2-22.8-39.3-37.8-68-37.8c-44.2 0-80 35.8-80 80z"/></svg>
